X: 74
T: The Rose In The Heather
M: 6/8
L: 1/8
R: jig
K:Dmaj
"D"FAF "A"EFE |"D" DFA BAF | ABd "A"ede | "D"fdB "A"AFE |
"D"FAF "A"EFE |"D" DFA BAF | AdB "A"AFE |"D" FDD D3 :|
|:"D"fdB ABd | faa afd | "G"gfg "D"fed | "A7"Bee efg |
"D"fdB ABd | faa afa | "Bm"baf "A7"gfe|"D" fdc d3 :|


